icons/folder-firebase-open.svg

<svg xmlns="http://www.w3.org/2000/svg" viewBox="0 0 32 32"><path fill="#FF9100" d="M28.967 12H9.442a2 2 0 0 0-1.898 1.368L4 24V10h24a2 2 0 0 0-2-2H15.124a2 2 0 0 1-1.28-.464l-1.288-1.072A2 2 0 0 0 11.276 6H4a2 2 0 0 0-2 2v16a2 2 0 0 0 2 2h22l4.805-11.212A2 2 0 0 0 28.967 12"/><path fill="#ffe0b2" d="M24 28.014s-4.584.213-7-4.014c-.66-1.156-1.006-2.805-1-4 .012-2.264.962-3.881 1.038-4 .117-.181 2.954-.867 4.962 0s3.979 3.215 4 6-2.275 4.565-2.691 4.881.691 1.133.691 1.133M22 25.5c2.051-1.646 1.875-2.063 2-3.5s-1.007-3.071-2-4-2.934-.65-3.5-.5c-2.418 5.405 3.5 8 3.5 8"/><path fill="#ffe0b2" d="m24 28.014 2.527-.941s-1.988-1.265-2.909-2.168C21.381 22.71 20.021 20.085 20 16s4-8 4-8 8.063 6.276 8 12c-.644 8.183-8 8.014-8 8.014m4-3.023c1.044-1.135 1.95-2.042 2-4.991.075-4.381-6-9.5-6-9.5s-1.856 2.393-2 5.5c-.338 7.273 6 8.991 6 8.991"/><path fill="#ffe0b2" d="M22.34 25.64s3.453-.086 5.66-.649c3.451-.879-1.022 2.191-1.022 2.191L24 28.015l-1.313-.536z"/></svg>

<svg xmlns="http://www.w3.org/2000/svg" viewBox="0 0 32 32">
  <path fill="rgb(255,145,0)"
    d="M28.967 12H9.442a2 2 0 0 0-1.898 1.368L4 24V10h24a2 2 0 0 0-2-2H15.124a2 2 0 0 1-1.28-.464l-1.288-1.072A2 2 0 0 0 11.276 6H4a2 2 0 0 0-2 2v16a2 2 0 0 0 2 2h22l4.805-11.212A2 2 0 0 0 28.967 12" />
  <g>
    <path
      d="M24,28.014C24,28.014 19.416,28.227 17,24C16.34,22.844 15.994,21.195 16,20C16.012,17.736 16.962,16.119 17.038,16C17.155,15.819 19.992,15.133 22,16C24.008,16.867 25.979,19.215 26,22C26.021,24.785 23.725,26.565 23.309,26.881C22.894,27.197 24,28.014 24,28.014ZM22,25.5C24.051,23.854 23.875,23.437 24,22C24.125,20.563 22.993,18.929 22,18C21.007,17.071 19.066,17.35 18.5,17.5C16.082,22.905 22,25.5 22,25.5Z"
      style="fill:rgb(255,224,178);" />
    <path
      d="M24,28.014L26.527,27.073C26.527,27.073 24.539,25.808 23.618,24.905C21.381,22.71 20.021,20.085 20,16C19.979,11.915 24,8 24,8C24,8 32.063,14.276 32,20C31.356,28.183 24,28.014 24,28.014ZM28,24.991C29.044,23.856 29.95,22.949 30,20C30.075,15.619 24,10.5 24,10.5C24,10.5 22.144,12.893 22,16C21.662,23.273 28,24.991 28,24.991Z"
      style="fill:rgb(255,224,178);" />
    <path
      d="M22.34,25.64C22.34,25.64 25.793,25.554 28,24.991C31.451,24.112 26.978,27.182 26.978,27.182L24,28.015L22.687,27.479L22.34,25.64Z"
      style="fill:rgb(255,224,178);" />
  </g>
</svg>
